assets/images/svg/logincard.svg

<svg width="192" height="306" viewBox="0 0 192 306" fill="none" xmlns="http://www.w3.org/2000/svg">
<path d="M42.3334 305.302L37.2709 302.375C35.6823 301.458 34.3854 299.214 34.3854 297.375V87.3542C34.3854 85.5104 35.6771 83.276 37.2709 82.3542L177.734 1.26041C179.328 0.338531 181.911 0.338531 183.505 1.26041L188.568 4.18228C190.161 5.09895 191.453 7.33853 191.453 9.17707V219.203C191.453 221.042 190.161 223.281 188.568 224.203L48.1042 305.302C46.5104 306.224 43.9271 306.219 42.3334 305.302Z" fill="#335863"/>
<path d="M191.427 8.70831C191.229 7.21873 190.016 6.67185 188.563 7.5104L48.1094 88.6198C47.3073 89.0833 46.6042 89.8594 46.0677 90.7656L35.2292 84.5104C35.75 83.6041 36.4688 82.8177 37.2709 82.3489L177.734 1.25519C179.323 0.338521 181.911 0.338521 183.51 1.25519L188.563 4.17706C190.031 5.0156 191.245 6.97915 191.427 8.70831Z" fill="#335863"/>
<path d="M47.6146 305.531C46.0157 306.214 43.7761 306.135 42.3386 305.307L37.2709 302.375C35.6823 301.453 34.3907 299.214 34.3907 297.375V87.3489C34.3907 86.4323 34.7084 85.4167 35.2292 84.5104L46.0677 90.7656C45.5365 91.6719 45.2136 92.6979 45.2136 93.6198V303.641C45.2136 305.292 46.2552 306.052 47.6146 305.531Z" fill="#0A2B34"/>
<path d="M45.2188 93.6146V303.635C45.2188 305.474 46.5104 306.224 48.1042 305.302L188.568 224.203C190.161 223.281 191.453 221.042 191.453 219.203V9.17705C191.453 7.33851 190.161 6.59372 188.568 7.51039L48.1042 88.6146C46.5104 89.5364 45.2188 91.7708 45.2188 93.6146Z" fill="#24444C"/>
<path d="M12.4167 173.672C10.6042 172.589 2.18754 167.802 1.75004 167.552C0.416711 166.74 -0.0624561 164.766 1.17713 163.432L34.3907 127.802L45.2136 134.016L12.0157 169.656C10.8178 170.937 11.2032 172.792 12.4167 173.672Z" fill="#335863"/>
<path d="M45.2188 134.021L12.0104 169.651C10.349 171.437 11.7552 174.339 14.1875 174.135L45.2188 171.578V134.021Z" fill="#24444C"/>
<path d="M118.333 69.9114C134.703 60.4583 147.974 68.1198 147.974 87.026C147.974 105.927 134.703 128.911 118.333 138.365C101.964 147.812 88.6927 140.151 88.6927 121.25C88.6927 102.349 101.964 79.3594 118.333 69.9114Z" fill="#33BFBF"/>
<path d="M118.125 84.7865C123.438 81.7188 127.745 84.2031 127.745 90.3386C127.745 96.4688 123.438 103.927 118.125 106.995C112.818 110.063 108.51 107.573 108.51 101.443C108.51 95.3073 112.818 87.8542 118.125 84.7865Z" fill="white"/>
<path d="M137.078 117.484C137.078 107.411 130.005 103.328 121.281 108.365L115.823 111.516C107.099 116.552 100.026 128.802 100.026 138.875V141.625C101.599 142.151 103.313 142.406 105.12 142.411C109.099 142.422 113.578 141.109 118.333 138.365C125.448 134.255 131.974 127.594 137.078 119.823V117.484Z" fill="white"/>
<path d="M99.5573 231.948L137.115 210.266C138.708 209.344 140 210.089 140 211.932V224.026C140 225.87 138.708 228.104 137.115 229.026L99.5573 250.708C97.9636 251.63 96.6719 250.885 96.6719 249.042V236.948C96.6719 235.104 97.9636 232.87 99.5573 231.948Z" fill="#33BFBF"/>
<path d="M81.1823 204.927L155.49 162.026C157.406 160.922 158.958 161.818 158.958 164.026V168.526C158.958 170.734 157.406 173.422 155.49 174.526L81.1771 217.432C79.2656 218.536 77.7136 217.641 77.7136 215.432V210.927C77.7136 208.719 79.2656 206.031 81.1823 204.927Z" fill="#F9F9F8"/>
<path d="M87.8646 181.312L89.8073 180.187C90.2813 179.911 90.6615 179.552 90.9479 179.094C91.2344 178.641 91.375 178.052 91.375 177.333C91.375 176.615 91.2344 176.198 90.9479 176.083C90.6615 175.974 90.2813 176.052 89.8073 176.328L87.8646 177.448V181.312ZM89.8698 173.88C90.8802 173.292 91.6667 173.208 92.2292 173.62C92.7865 174.026 93.0677 174.943 93.0677 176.354C93.0677 177.771 92.7865 179.016 92.2292 180.083C91.6667 181.156 90.8802 181.979 89.8698 182.568L87.8646 183.724V188.031C87.8646 188.172 87.8282 188.312 87.7604 188.453C87.6979 188.599 87.6146 188.693 87.5261 188.745L86.5104 189.328L86.2709 189.318C86.2032 189.25 86.1719 189.151 86.1719 189.005V176.536C86.1719 176.396 86.2032 176.25 86.2709 176.109C86.3386 175.969 86.4167 175.87 86.5104 175.818L89.8698 173.88Z" fill="#F9F9F8"/>
<path d="M99.349 176.88L97.9688 172.177L96.5886 178.474L99.349 176.88ZM98.6563 168.802C98.7917 168.724 98.8959 168.719 98.9584 168.792C99.0261 168.865 99.0886 168.995 99.1354 169.182L102.208 179.615L102.219 179.74C102.219 179.88 102.188 180.021 102.12 180.161C102.052 180.307 101.974 180.406 101.88 180.458L100.979 180.979C100.813 181.073 100.693 181.089 100.63 181.016L100.49 180.776L99.9532 178.948L95.9896 181.234L95.4479 183.687C95.4219 183.807 95.375 183.937 95.3125 184.089C95.2448 184.234 95.1302 184.354 94.9584 184.453L94.0573 184.974L93.8177 184.958C93.75 184.891 93.7188 184.792 93.7188 184.651L93.7344 184.505L96.8021 170.531C96.8542 170.281 96.9115 170.083 96.9792 169.937C97.0469 169.792 97.1459 169.677 97.2813 169.599L98.6563 168.802Z" fill="#F9F9F8"/>
<path d="M106.885 163.859C107.448 163.536 107.938 163.37 108.365 163.354C108.792 163.339 109.146 163.422 109.432 163.609C109.714 163.792 109.927 164.052 110.078 164.385C110.224 164.719 110.307 165.068 110.323 165.427C110.328 165.578 110.297 165.719 110.229 165.859C110.156 165.995 110.073 166.094 109.984 166.146L109.104 166.651C108.964 166.734 108.859 166.755 108.786 166.714L108.589 166.49C108.464 166.24 108.276 166.068 108.021 165.974C107.766 165.885 107.385 165.984 106.885 166.276C106.667 166.401 106.464 166.552 106.266 166.74C106.068 166.922 105.896 167.125 105.75 167.344C105.604 167.562 105.49 167.797 105.406 168.036C105.323 168.276 105.281 168.521 105.281 168.766C105.281 169.062 105.318 169.281 105.401 169.422C105.479 169.562 105.615 169.646 105.802 169.672C105.99 169.698 106.24 169.677 106.547 169.615C106.854 169.552 107.24 169.469 107.698 169.354C108.203 169.234 108.635 169.182 109 169.198C109.365 169.214 109.656 169.307 109.885 169.49C110.12 169.677 110.292 169.937 110.401 170.286C110.516 170.635 110.573 171.068 110.573 171.599C110.573 172.177 110.49 172.76 110.323 173.354C110.156 173.948 109.917 174.51 109.604 175.042C109.297 175.573 108.917 176.073 108.464 176.542C108.016 177.005 107.51 177.401 106.948 177.724C106.479 177.995 106.031 178.167 105.604 178.24C105.182 178.312 104.802 178.281 104.474 178.141C104.141 178.005 103.875 177.76 103.677 177.411C103.474 177.068 103.365 176.615 103.339 176.062C103.328 175.917 103.359 175.771 103.432 175.635C103.5 175.495 103.583 175.401 103.677 175.349L104.552 174.844C104.698 174.76 104.802 174.734 104.88 174.771C104.953 174.802 105.016 174.88 105.068 175.005C105.125 175.141 105.198 175.266 105.281 175.385C105.365 175.505 105.474 175.589 105.62 175.635C105.76 175.682 105.938 175.682 106.151 175.646C106.365 175.604 106.63 175.495 106.948 175.312C107.198 175.167 107.443 174.995 107.677 174.802C107.911 174.615 108.115 174.396 108.292 174.161C108.464 173.922 108.604 173.677 108.714 173.411C108.823 173.151 108.88 172.87 108.88 172.573C108.88 172.292 108.818 172.094 108.703 171.979C108.589 171.87 108.411 171.818 108.172 171.828C107.932 171.833 107.641 171.88 107.286 171.969C106.938 172.052 106.531 172.141 106.073 172.229C105.651 172.312 105.286 172.344 104.974 172.312C104.656 172.281 104.401 172.167 104.198 171.979C103.99 171.786 103.839 171.51 103.74 171.151C103.641 170.792 103.589 170.323 103.589 169.74C103.589 169.161 103.672 168.578 103.839 167.995C104.005 167.411 104.234 166.859 104.531 166.344C104.818 165.823 105.172 165.349 105.578 164.917C105.979 164.484 106.417 164.13 106.885 163.859Z" fill="#F9F9F8"/>
<path d="M115.635 158.807C116.198 158.484 116.693 158.318 117.115 158.302C117.542 158.286 117.901 158.37 118.182 158.552C118.469 158.74 118.682 158.995 118.828 159.328C118.974 159.661 119.057 160.016 119.073 160.375C119.083 160.526 119.052 160.672 118.979 160.807C118.906 160.943 118.823 161.042 118.734 161.094L117.854 161.599C117.714 161.682 117.609 161.703 117.536 161.661L117.344 161.432C117.214 161.187 117.026 161.016 116.771 160.922C116.516 160.833 116.141 160.932 115.635 161.219C115.422 161.349 115.214 161.5 115.016 161.687C114.818 161.87 114.646 162.073 114.505 162.292C114.354 162.51 114.24 162.74 114.156 162.984C114.073 163.224 114.031 163.469 114.031 163.714C114.031 164.01 114.073 164.224 114.151 164.365C114.229 164.51 114.365 164.594 114.552 164.62C114.74 164.646 114.99 164.625 115.297 164.562C115.609 164.5 115.99 164.417 116.453 164.302C116.953 164.182 117.385 164.13 117.75 164.141C118.115 164.156 118.411 164.255 118.641 164.437C118.87 164.625 119.042 164.885 119.151 165.234C119.266 165.583 119.323 166.016 119.323 166.547C119.323 167.125 119.24 167.708 119.073 168.302C118.906 168.896 118.667 169.458 118.359 169.99C118.047 170.521 117.672 171.021 117.214 171.49C116.766 171.953 116.26 172.349 115.698 172.672C115.229 172.943 114.786 173.115 114.359 173.187C113.932 173.26 113.552 173.224 113.224 173.089C112.896 172.953 112.63 172.708 112.427 172.359C112.229 172.01 112.115 171.562 112.089 171.01C112.083 170.859 112.115 170.719 112.182 170.583C112.255 170.443 112.333 170.349 112.427 170.297L113.307 169.792C113.448 169.708 113.552 169.682 113.63 169.719C113.708 169.75 113.766 169.828 113.818 169.953C113.875 170.089 113.948 170.214 114.031 170.333C114.115 170.453 114.229 170.536 114.37 170.583C114.516 170.63 114.693 170.63 114.906 170.594C115.12 170.552 115.38 170.443 115.698 170.26C115.953 170.115 116.193 169.948 116.427 169.75C116.661 169.557 116.865 169.344 117.042 169.109C117.214 168.87 117.359 168.625 117.469 168.359C117.578 168.099 117.63 167.818 117.63 167.521C117.63 167.24 117.573 167.042 117.458 166.927C117.339 166.818 117.161 166.766 116.922 166.771C116.688 166.781 116.391 166.828 116.036 166.917C115.688 167.005 115.281 167.089 114.823 167.177C114.406 167.26 114.036 167.292 113.724 167.26C113.411 167.224 113.151 167.115 112.948 166.927C112.745 166.734 112.589 166.458 112.49 166.099C112.391 165.74 112.339 165.266 112.339 164.687C112.339 164.109 112.422 163.526 112.589 162.943C112.755 162.354 112.984 161.807 113.281 161.292C113.573 160.771 113.922 160.297 114.328 159.865C114.734 159.432 115.172 159.078 115.635 158.807Z" fill="#F9F9F8"/>
<path d="M125.354 160.474L124.276 166.87C124.234 167.089 124.182 167.276 124.12 167.432C124.057 167.594 123.964 167.708 123.839 167.781L122.823 168.365C122.698 168.437 122.599 168.438 122.526 168.354C122.458 168.271 122.411 168.141 122.385 167.964L120.776 156.708L120.766 156.563C120.766 156.422 120.802 156.276 120.865 156.135C120.932 155.995 121.01 155.896 121.104 155.844L122.031 155.307L122.271 155.286C122.344 155.323 122.396 155.427 122.422 155.604L123.474 163.182L124.401 157.495C124.422 157.391 124.458 157.255 124.521 157.078C124.583 156.901 124.693 156.766 124.844 156.677L125.87 156.083C126.021 155.995 126.125 156.01 126.188 156.115L126.307 156.391L127.234 161.01L128.292 152.219C128.313 152.01 128.365 151.849 128.438 151.724L128.677 151.474L129.604 150.938L129.844 150.953C129.911 151.016 129.943 151.12 129.943 151.26L129.932 151.422L128.328 164.531C128.302 164.74 128.255 164.927 128.182 165.089C128.115 165.25 128.016 165.37 127.885 165.443L126.87 166.026C126.745 166.099 126.651 166.094 126.589 166.01C126.526 165.922 126.474 165.797 126.432 165.625L125.354 160.474Z" fill="#F9F9F8"/>
<path d="M137.281 151.641C137.25 150.734 137.052 150.13 136.698 149.823C136.344 149.521 135.87 149.536 135.286 149.875C134.703 150.214 134.234 150.74 133.875 151.453C133.521 152.167 133.323 152.995 133.292 153.943C133.276 154.443 133.266 154.99 133.266 155.589C133.266 156.187 133.276 156.724 133.292 157.203C133.323 158.115 133.521 158.714 133.875 159.01C134.234 159.307 134.703 159.286 135.286 158.948C135.87 158.615 136.344 158.089 136.698 157.385C137.052 156.677 137.25 155.849 137.281 154.901C137.297 154.406 137.307 153.854 137.307 153.255C137.307 152.656 137.297 152.12 137.281 151.641ZM131.599 154.823C131.625 154.089 131.714 153.359 131.87 152.63C132.026 151.906 132.255 151.219 132.552 150.578C132.854 149.932 133.229 149.344 133.682 148.807C134.135 148.266 134.667 147.823 135.286 147.464C135.896 147.109 136.427 146.937 136.88 146.948C137.328 146.958 137.708 147.115 138.01 147.417C138.307 147.719 138.536 148.141 138.698 148.677C138.854 149.219 138.948 149.849 138.974 150.568C138.979 150.807 138.99 151.073 138.99 151.365C138.995 151.661 139 151.964 139 152.281C139 152.594 138.995 152.901 138.99 153.198C138.99 153.5 138.979 153.771 138.974 154.021C138.948 154.76 138.859 155.49 138.703 156.214C138.547 156.943 138.323 157.625 138.021 158.271C137.719 158.911 137.344 159.5 136.885 160.036C136.427 160.568 135.896 161.01 135.286 161.365C134.667 161.719 134.135 161.896 133.682 161.885C133.229 161.875 132.854 161.719 132.552 161.427C132.255 161.13 132.026 160.708 131.87 160.161C131.714 159.615 131.625 158.984 131.599 158.281C131.594 158.042 131.583 157.776 131.583 157.479C131.578 157.187 131.578 156.88 131.578 156.568C131.578 156.25 131.578 155.943 131.583 155.646C131.583 155.349 131.594 155.073 131.599 154.823Z" fill="#F9F9F8"/>
<path d="M142.948 149.312L144.766 148.266C145.245 147.99 145.625 147.641 145.906 147.219C146.193 146.797 146.333 146.229 146.333 145.505C146.333 144.786 146.193 144.385 145.906 144.302C145.625 144.224 145.245 144.323 144.766 144.599L142.948 145.646V149.312ZM144.828 142.146C145.875 141.542 146.667 141.458 147.208 141.891C147.755 142.323 148.026 143.203 148.026 144.531C148.026 145.469 147.885 146.349 147.604 147.177C147.323 148 146.917 148.729 146.37 149.365L148.099 153.135L148.141 153.328L148.057 153.672L147.865 153.911L146.797 154.526C146.63 154.62 146.505 154.63 146.427 154.552L146.255 154.318L144.615 150.766L142.948 151.729V156.224C142.948 156.37 142.917 156.51 142.849 156.651C142.781 156.792 142.703 156.885 142.609 156.943L141.594 157.531L141.354 157.51C141.286 157.448 141.255 157.344 141.255 157.203V144.734C141.255 144.589 141.286 144.448 141.354 144.307C141.422 144.161 141.5 144.068 141.594 144.016L144.828 142.146Z" fill="#F9F9F8"/>
<path d="M155.776 141.156C155.76 140.755 155.708 140.401 155.62 140.099C155.531 139.797 155.401 139.557 155.229 139.396C155.057 139.229 154.844 139.151 154.589 139.151C154.323 139.151 154.016 139.255 153.656 139.464L151.979 140.432V149.12L153.719 148.115C154.063 147.917 154.359 147.672 154.609 147.38C154.859 147.089 155.068 146.766 155.24 146.406C155.406 146.052 155.531 145.672 155.62 145.26C155.708 144.849 155.76 144.432 155.776 144.01C155.807 143.042 155.807 142.089 155.776 141.156ZM153.719 137.016C154.339 136.656 154.875 136.474 155.328 136.458C155.786 136.448 156.167 136.583 156.474 136.875C156.776 137.161 157.01 137.583 157.177 138.146C157.339 138.708 157.432 139.385 157.469 140.177C157.505 141.109 157.505 142.062 157.469 143.036C157.432 143.865 157.339 144.656 157.177 145.406C157.01 146.156 156.781 146.849 156.479 147.49C156.177 148.125 155.802 148.698 155.354 149.208C154.911 149.719 154.385 150.146 153.781 150.49L150.625 152.318L150.385 152.297C150.318 152.234 150.286 152.135 150.286 151.99V139.521C150.286 139.38 150.318 139.234 150.385 139.094C150.453 138.953 150.531 138.854 150.625 138.802L153.719 137.016Z" fill="#F9F9F8"/>
</svg>

<svg xmlns="http://www.w3.org/2000/svg" width="192" height="306" fill="none"><path fill="#335863" d="m42.333 305.302-5.062-2.927c-1.589-.917-2.886-3.161-2.886-5V87.355c0-1.845 1.292-4.079 2.886-5L177.734 1.26c1.594-.921 4.177-.921 5.771 0l5.063 2.922c1.593.917 2.885 3.157 2.885 4.995v210.026c0 1.839-1.292 4.078-2.885 5L48.104 305.302c-1.594.922-4.177.917-5.77 0Z"/><path fill="#335863" d="M191.427 8.708c-.198-1.49-1.411-2.036-2.864-1.198L48.109 88.62c-.802.463-1.505 1.24-2.041 2.146L35.229 84.51c.521-.906 1.24-1.692 2.042-2.161L177.734 1.255c1.589-.916 4.177-.916 5.776 0l5.053 2.922c1.468.839 2.682 2.802 2.864 4.531Z"/><path fill="#0A2B34" d="M47.615 305.531c-1.6.683-3.839.604-5.276-.224l-5.068-2.932c-1.589-.922-2.88-3.161-2.88-5V87.349c0-.917.317-1.932.838-2.839l10.839 6.256c-.532.906-.854 1.932-.854 2.854V303.64c0 1.651 1.041 2.411 2.4 1.89Z"/><path fill="#24444C" d="M45.219 93.615v210.02c0 1.839 1.291 2.589 2.885 1.667l140.464-81.099c1.593-.922 2.885-3.161 2.885-5V9.177c0-1.838-1.292-2.583-2.885-1.667L48.104 88.615c-1.594.921-2.885 3.156-2.885 5Z"/><path fill="#335863" d="M12.417 173.672c-1.813-1.083-10.23-5.87-10.667-6.12-1.333-.812-1.812-2.786-.573-4.12l33.214-35.63 10.823 6.214-33.198 35.64c-1.198 1.281-.813 3.136.4 4.016Z"/><path fill="#24444C" d="m45.219 134.021-33.209 35.63c-1.661 1.786-.255 4.688 2.178 4.484l31.03-2.557v-37.557Z"/><path fill="#33BFBF" d="M118.333 69.911c16.37-9.453 29.641-1.791 29.641 17.115 0 18.901-13.271 41.885-29.641 51.339-16.369 9.447-29.64 1.786-29.64-17.115s13.271-41.89 29.64-51.339Z"/><path fill="#fff" d="M118.125 84.787c5.313-3.068 9.62-.584 9.62 5.552 0 6.13-4.307 13.588-9.62 16.656-5.307 3.068-9.615.578-9.615-5.552 0-6.136 4.308-13.589 9.615-16.656ZM137.078 117.484c0-10.073-7.073-14.156-15.797-9.119l-5.458 3.151c-8.724 5.036-15.797 17.286-15.797 27.359v2.75c1.573.526 3.287.781 5.094.786 3.979.011 8.458-1.302 13.213-4.046 7.115-4.11 13.641-10.771 18.745-18.542v-2.339Z"/><path fill="#33BFBF" d="m99.557 231.948 37.558-21.682c1.593-.922 2.885-.177 2.885 1.666v12.094c0 1.844-1.292 4.078-2.885 5l-37.558 21.682c-1.593.922-2.885.177-2.885-1.666v-12.094c0-1.844 1.292-4.078 2.885-5Z"/><path fill="#F9F9F8" d="m81.182 204.927 74.308-42.901c1.916-1.104 3.468-.208 3.468 2v4.5c0 2.208-1.552 4.896-3.468 6l-74.313 42.906c-1.911 1.104-3.463.209-3.463-2v-4.505c0-2.208 1.552-4.896 3.468-6ZM87.865 181.312l1.942-1.125a3.234 3.234 0 0 0 1.14-1.093c.287-.453.428-1.042.428-1.761 0-.718-.14-1.135-.427-1.25-.286-.109-.667-.031-1.14.245l-1.943 1.12v3.864Zm2.005-7.432c1.01-.588 1.797-.672 2.36-.26.556.406.838 1.323.838 2.734 0 1.417-.281 2.662-.839 3.729a6.07 6.07 0 0 1-2.36 2.485l-2.004 1.156v4.307a.968.968 0 0 1-.105.422.598.598 0 0 1-.234.292l-1.016.583-.24-.01c-.067-.068-.098-.167-.098-.313v-12.469c0-.14.031-.286.099-.427.068-.14.146-.239.24-.291l3.359-1.938ZM99.349 176.88l-1.38-4.703-1.38 6.297 2.76-1.594Zm-.693-8.078c.136-.078.24-.083.302-.01.068.073.13.203.177.39l3.073 10.433.011.125c0 .14-.031.281-.099.421-.068.146-.146.245-.24.297l-.901.521c-.166.094-.286.11-.349.037l-.14-.24-.537-1.828-3.963 2.286-.542 2.453c-.026.12-.073.25-.135.402a.823.823 0 0 1-.355.364l-.9.521-.24-.016c-.068-.067-.1-.166-.1-.307l.016-.146 3.068-13.974c.052-.25.11-.448.177-.594a.738.738 0 0 1 .302-.338l1.375-.797ZM106.885 163.859c.563-.323 1.053-.489 1.48-.505.427-.015.781.068 1.067.255.282.183.495.443.646.776.146.334.229.683.245 1.042a.898.898 0 0 1-.094.432.716.716 0 0 1-.245.287l-.88.505c-.14.083-.245.104-.318.063l-.197-.224a1.006 1.006 0 0 0-.568-.516c-.255-.089-.636.01-1.136.302a3.207 3.207 0 0 0-.619.464 3.32 3.32 0 0 0-.516.604 3.08 3.08 0 0 0-.344.692c-.083.24-.125.485-.125.73 0 .296.037.515.12.656.078.14.214.224.401.25.188.026.438.005.745-.057.307-.063.693-.146 1.151-.261.505-.12.937-.172 1.302-.156.365.016.656.109.885.292.235.187.407.447.516.796.115.349.172.782.172 1.313 0 .578-.083 1.161-.25 1.755a7.104 7.104 0 0 1-.719 1.688 7.722 7.722 0 0 1-1.14 1.5 6.858 6.858 0 0 1-1.516 1.182c-.469.271-.917.443-1.344.516-.422.072-.802.041-1.13-.099-.333-.136-.599-.381-.797-.73-.203-.343-.312-.796-.338-1.349a.774.774 0 0 1 .093-.427.623.623 0 0 1 .245-.286l.875-.505c.146-.084.25-.11.328-.073.073.031.136.109.188.234.057.136.13.261.213.38.084.12.193.204.339.25.14.047.318.047.531.011.214-.042.479-.151.797-.334.25-.145.495-.317.729-.51.234-.187.438-.406.615-.641.172-.239.312-.484.422-.75.109-.26.166-.541.166-.838 0-.281-.062-.479-.177-.594-.114-.109-.292-.161-.531-.151-.24.005-.531.052-.886.141-.348.083-.755.172-1.213.26-.422.083-.787.115-1.099.083a1.287 1.287 0 0 1-.776-.333c-.208-.193-.359-.469-.458-.828-.099-.359-.151-.828-.151-1.411 0-.579.083-1.162.25-1.745a7.27 7.27 0 0 1 .692-1.651 7.055 7.055 0 0 1 1.047-1.427 5.637 5.637 0 0 1 1.307-1.058ZM115.635 158.807c.563-.323 1.058-.489 1.48-.505.427-.016.786.068 1.067.25.287.188.5.443.646.776.146.333.229.688.245 1.047a.787.787 0 0 1-.094.432.716.716 0 0 1-.245.287l-.88.505c-.14.083-.245.104-.318.062l-.192-.229a1.038 1.038 0 0 0-.573-.51c-.255-.089-.63.01-1.136.297a3.69 3.69 0 0 0-.619.468c-.198.183-.37.386-.511.605a2.812 2.812 0 0 0-.349.692c-.083.24-.125.485-.125.73 0 .296.042.51.12.651.078.145.214.229.401.255.188.026.438.005.745-.058.312-.062.693-.145 1.156-.26.5-.12.932-.172 1.297-.161.365.015.661.114.891.296.229.188.401.448.51.797.115.349.172.782.172 1.313 0 .578-.083 1.161-.25 1.755a7.3 7.3 0 0 1-.714 1.688 7.751 7.751 0 0 1-1.145 1.5 6.858 6.858 0 0 1-1.516 1.182c-.469.271-.912.443-1.339.515-.427.073-.807.037-1.135-.098-.328-.136-.594-.381-.797-.73-.198-.349-.312-.797-.338-1.349a.868.868 0 0 1 .093-.427c.073-.14.151-.234.245-.286l.88-.505c.141-.084.245-.11.323-.073.078.031.136.109.188.234.057.136.13.261.213.38.084.12.198.203.339.25.146.047.323.047.536.011.214-.042.474-.151.792-.334.255-.145.495-.312.729-.51a3.76 3.76 0 0 0 .615-.641c.172-.239.317-.484.427-.75a2.15 2.15 0 0 0 .161-.838c0-.281-.057-.479-.172-.594-.119-.109-.297-.161-.536-.156-.234.01-.531.057-.886.146-.348.088-.755.172-1.213.26-.417.083-.787.115-1.099.083-.313-.036-.573-.145-.776-.333-.203-.193-.359-.469-.458-.828-.099-.359-.151-.833-.151-1.412 0-.578.083-1.161.25-1.744a7.177 7.177 0 0 1 .692-1.651 7.25 7.25 0 0 1 1.047-1.427 5.853 5.853 0 0 1 1.307-1.058ZM125.354 160.474l-1.078 6.396a3.13 3.13 0 0 1-.156.562.66.66 0 0 1-.281.349l-1.016.584c-.125.072-.224.073-.297-.011-.068-.083-.115-.213-.141-.39l-1.609-11.256-.01-.145c0-.141.036-.287.099-.428.067-.14.145-.239.239-.291l.927-.537.24-.021c.073.037.125.141.151.318l1.052 7.578.927-5.687c.021-.104.057-.24.12-.417a.733.733 0 0 1 .323-.401l1.026-.594c.151-.088.255-.073.318.032l.119.276.927 4.619 1.058-8.791c.021-.209.073-.37.146-.495l.239-.25.927-.536.24.015c.067.063.099.167.099.307l-.011.162-1.604 13.109a1.94 1.94 0 0 1-.146.558.693.693 0 0 1-.297.354l-1.015.583c-.125.073-.219.068-.281-.016a1.118 1.118 0 0 1-.157-.385l-1.078-5.151ZM137.281 151.641c-.031-.907-.229-1.511-.583-1.818-.354-.302-.828-.287-1.412.052-.583.339-1.052.865-1.411 1.578-.354.714-.552 1.542-.583 2.49a51.337 51.337 0 0 0 0 3.26c.031.912.229 1.511.583 1.807.359.297.828.276 1.411-.062.584-.333 1.058-.859 1.412-1.563.354-.708.552-1.536.583-2.484a51.097 51.097 0 0 0 0-3.26Zm-5.682 3.182a12.58 12.58 0 0 1 .271-2.193 9.771 9.771 0 0 1 .682-2.052 7.947 7.947 0 0 1 1.13-1.771 5.974 5.974 0 0 1 1.604-1.343c.61-.355 1.141-.527 1.594-.516.448.01.828.167 1.13.469.297.302.526.724.688 1.26.156.542.25 1.172.276 1.891.005.239.016.505.016.797.005.296.01.599.01.916 0 .313-.005.62-.01.917 0 .302-.011.573-.016.823a12.462 12.462 0 0 1-.271 2.193 9.534 9.534 0 0 1-.682 2.057 7.834 7.834 0 0 1-1.136 1.765 6.221 6.221 0 0 1-1.599 1.329c-.619.354-1.151.531-1.604.52a1.617 1.617 0 0 1-1.13-.458c-.297-.297-.526-.719-.682-1.266-.156-.546-.245-1.177-.271-1.88-.005-.239-.016-.505-.016-.802-.005-.292-.005-.599-.005-.911 0-.318 0-.625.005-.922 0-.297.011-.573.016-.823ZM142.948 149.312l1.818-1.046a3.351 3.351 0 0 0 1.14-1.047c.287-.422.427-.99.427-1.714 0-.719-.14-1.12-.427-1.203-.281-.078-.661.021-1.14.297l-1.818 1.047v3.666Zm1.88-7.166c1.047-.604 1.839-.688 2.38-.255.547.432.818 1.312.818 2.64a8.17 8.17 0 0 1-.422 2.646 6.56 6.56 0 0 1-1.234 2.188l1.729 3.77.042.193-.084.344-.192.239-1.068.615c-.167.094-.292.104-.37.026l-.172-.234-1.64-3.552-1.667.963v4.495a.963.963 0 0 1-.099.427.662.662 0 0 1-.24.292l-1.015.588-.24-.021c-.068-.062-.099-.166-.099-.307v-12.469c0-.145.031-.286.099-.427.068-.146.146-.239.24-.291l3.234-1.87ZM155.776 141.156a4.44 4.44 0 0 0-.156-1.057c-.089-.302-.219-.542-.391-.703a.878.878 0 0 0-.64-.245c-.266 0-.573.104-.933.313l-1.677.968v8.688l1.74-1.005a3.38 3.38 0 0 0 .89-.735c.25-.291.459-.614.631-.974.166-.354.291-.734.38-1.146.088-.411.14-.828.156-1.25a43.8 43.8 0 0 0 0-2.854Zm-2.057-4.14c.62-.36 1.156-.542 1.609-.558.458-.01.839.125 1.146.417.302.286.536.708.703 1.271.162.562.255 1.239.292 2.031.036.932.036 1.885 0 2.859-.037.829-.13 1.62-.292 2.37a9.927 9.927 0 0 1-.698 2.084 7.41 7.41 0 0 1-1.125 1.718 5.98 5.98 0 0 1-1.573 1.282l-3.156 1.828-.24-.021c-.067-.063-.099-.162-.099-.307v-12.469a.99.99 0 0 1 .099-.427c.068-.141.146-.24.24-.292l3.094-1.786Z"/></svg>
